src/images/svg/be-square/cybersecurity.svg

<svg width="48" height="48" viewBox="0 0 48 48" fill="none" xmlns="http://www.w3.org/2000/svg">
<path fill-rule="evenodd" clip-rule="evenodd" d="M39.7656 12.2674C35.5998 5.87939 27.0442 4.07794 20.6562 8.24371C17.9127 10.0329 15.8944 12.7389 14.9619 15.8787L16.1128 16.2183C16.4276 15.1547 16.883 14.1379 17.4668 13.1948H21.7778C21.4752 14.4609 21.2595 15.7463 21.1321 17.0418L22.3263 17.1584C22.4577 15.8221 22.6871 14.4974 23.0127 13.1948H27.5991V18.9696H28.799V13.1948H33.3884C33.88 15.1585 34.1509 17.1709 34.1961 19.1946H29.999V20.3946H34.1961C34.1509 22.4184 33.88 24.4308 33.3884 26.3945H29.924V27.5944H33.0597C32.6059 29.1109 32.0247 30.5863 31.3223 32.0048C30.6738 32.1696 30.0133 32.2826 29.347 32.3427L29.4549 33.5379C37.0453 32.8435 42.6357 26.1275 41.9413 18.5371C41.7368 16.3013 40.99 14.1492 39.7656 12.2674ZM22.0908 11.9948H18.3034C19.6661 10.2601 21.4619 8.91517 23.5099 8.09551C22.9449 9.35991 22.4706 10.663 22.0908 11.9948ZM27.5991 11.9948H23.3406C23.794 10.4787 24.3744 9.00344 25.076 7.58493C25.9022 7.37538 26.7475 7.24991 27.5991 7.21054V11.9948ZM40.7828 19.1946H35.3974C35.3542 17.1728 35.0951 15.1615 34.6244 13.1948H38.9308C40.0472 15.0052 40.6845 17.0699 40.7828 19.1946ZM28.799 11.9948V7.21054C29.6506 7.24991 30.4961 7.37523 31.3224 7.58478C32.0248 9.00322 32.6059 10.4784 33.0597 11.9948H28.799ZM32.8896 8.09626C34.9369 8.91599 36.732 10.2606 38.0944 11.9948H34.31C33.9297 10.6632 33.4551 9.36036 32.8896 8.09626ZM34.763 30.5516C34.1657 30.9171 33.5389 31.2323 32.8893 31.4937C33.4549 30.2294 33.9297 28.9263 34.31 27.5944H38.0923C37.1649 28.7681 36.0379 29.7691 34.763 30.5516ZM38.9308 26.3945H34.6244C35.0951 24.4278 35.3542 22.4164 35.3974 20.3946H40.7828C40.6845 22.5193 40.0471 24.584 38.9308 26.3945Z" fill="#FF444F"/>
<path d="M16.7996 22.1938H17.9995V23.3938H16.7996V22.1938Z" fill="#FF444F"/>
<path d="M17.9995 35.3939H16.7996V36.5938H17.9995V35.3939Z" fill="#FF444F"/>
<path d="M10.8003 24.5944H12.0002V25.7943H10.8003V24.5944Z" fill="#FF444F"/>
<path d="M13.2 30.594H12V31.7938H13.2V30.594Z" fill="#FF444F"/>
<path d="M21.5992 30.594H22.7991V31.7938H21.5992V30.594Z" fill="#FF444F"/>
<path d="M23.9988 24.5944H22.7989V25.7943H23.9988V24.5944Z" fill="#FF444F"/>
<path fill-rule="evenodd" clip-rule="evenodd" d="M17.765 19.5002C20.1159 21.2967 22.9183 22.407 25.8617 22.7081C26.1678 22.7394 26.4005 22.9972 26.4005 23.3049V26.9561C26.399 31.5096 23.9305 35.705 19.9506 37.9176L17.6922 39.1724C17.511 39.2731 17.2907 39.2731 17.1095 39.1724L14.8507 37.9176C10.8709 35.705 8.40235 31.5096 8.40085 26.9561V23.3049C8.40085 22.9973 8.63357 22.7394 8.93964 22.7081C11.883 22.407 14.6855 21.2967 17.0364 19.5002C17.2514 19.3359 17.5499 19.3359 17.765 19.5002ZM19.3681 36.8687C22.9669 34.8677 25.1992 31.0739 25.2006 26.9561V23.8379C22.3835 23.4598 19.7038 22.3902 17.4007 20.7245C15.0976 22.3902 12.4179 23.4598 9.60083 23.8379V26.9561C9.60218 31.0739 11.8344 34.8677 15.4333 36.8687L17.4007 37.9616L19.3681 36.8687Z" fill="#FF444F"/>
<path fill-rule="evenodd" clip-rule="evenodd" d="M28.1994 20.3952H27.5395C23.8936 20.4051 20.3953 18.9561 17.8243 16.371C17.59 16.1367 17.2101 16.1367 16.9758 16.371C14.4046 18.9562 10.9061 20.4053 7.25997 20.3952H6.59999C6.26864 20.3952 6 20.6639 6 20.9952V26.9575C6.00165 32.3825 8.94263 37.3808 13.6842 40.0168L17.1083 41.9191C17.2895 42.0198 17.5099 42.0198 17.6911 41.9191L21.1153 40.0168C25.8568 37.3807 28.7978 32.3825 28.7994 26.9575V20.9952C28.7994 20.6638 28.5308 20.3952 28.1994 20.3952ZM27.5995 26.9575C27.5978 31.9468 24.8931 36.5434 20.5325 38.9679L17.3997 40.7083L14.2669 38.9679C9.90635 36.5434 7.20162 31.9467 7.19997 26.9575V21.5952H7.25997C9.22199 21.5971 11.165 21.2106 12.977 20.458C14.6076 19.7846 16.1052 18.8263 17.3997 17.6278C20.1603 20.1785 23.7809 21.5952 27.5395 21.5952H27.5995V26.9575Z" fill="#FF444F"/>
</svg>

<svg xmlns="http://www.w3.org/2000/svg" width="48" height="48" fill="#ff444f"  xmlns:v="https://vecta.io/nano"><path fill-rule="evenodd" d="M39.766 12.267a13.81 13.81 0 0 0-24.804 3.611l1.151.34c.315-1.064.77-2.08 1.354-3.023h4.311c-.303 1.266-.518 2.551-.646 3.847l1.194.117a27.4 27.4 0 0 1 .686-3.964h4.586v5.775h1.2v-5.775h4.589a27.21 27.21 0 0 1 .808 6h-4.197v1.2h4.197a27.21 27.21 0 0 1-.808 6h-3.464v1.2h3.136a28.08 28.08 0 0 1-1.737 4.41c-.648.165-1.309.278-1.975.338l.108 1.195c7.59-.694 13.181-7.41 12.486-15.001a13.8 13.8 0 0 0-2.176-6.27zm-17.675-.273h-3.787a12.55 12.55 0 0 1 5.206-3.899 29.16 29.16 0 0 0-1.419 3.899zm5.508 0h-4.259a28.12 28.12 0 0 1 1.735-4.41c.826-.21 1.671-.335 2.523-.374v4.784zm13.184 7.2h-5.385a28.38 28.38 0 0 0-.773-6h4.306c1.116 1.81 1.754 3.875 1.852 6zm-11.984-7.2V7.211a12.64 12.64 0 0 1 2.523.374c.702 1.418 1.284 2.894 1.737 4.41h-4.261zm4.091-3.899a12.55 12.55 0 0 1 5.205 3.899H34.31a29.15 29.15 0 0 0-1.42-3.899zm1.873 22.455c-.597.366-1.224.681-1.874.942.566-1.264 1.04-2.567 1.421-3.899h3.782a12.73 12.73 0 0 1-3.329 2.957zm4.168-4.157h-4.306a28.38 28.38 0 0 0 .773-6h5.385c-.098 2.125-.736 4.189-1.852 6z"/><path d="M16.8 22.194H18v1.2h-1.2v-1.2zm1.2 13.2h-1.2v1.2H18v-1.2zm-7.2-10.8H12v1.2h-1.2v-1.2zm2.4 6H12v1.2h1.2v-1.2zm8.399 0h1.2v1.2h-1.2v-1.2zm2.4-6h-1.2v1.2h1.2v-1.2z"/><path d="M17.765 19.5a16.02 16.02 0 0 0 8.097 3.208.6.6 0 0 1 .539.597v3.651a12.55 12.55 0 0 1-6.45 10.962l-2.258 1.255a.6.6 0 0 1-.583 0l-2.259-1.255a12.55 12.55 0 0 1-6.45-10.961v-3.651a.6.6 0 0 1 .539-.597 16.02 16.02 0 0 0 8.097-3.208.6.6 0 0 1 .729 0zm1.603 17.368a11.35 11.35 0 0 0 5.833-9.913v-3.118a17.22 17.22 0 0 1-7.8-3.113 17.22 17.22 0 0 1-7.8 3.113v3.118c.001 4.118 2.234 7.912 5.832 9.913l1.967 1.093 1.967-1.093zm8.831-16.473h-.66a13.65 13.65 0 0 1-9.715-4.024.6.6 0 0 0-.849 0 13.65 13.65 0 0 1-9.716 4.024H6.6a.6.6 0 0 0-.6.6v5.962a14.95 14.95 0 0 0 7.684 13.059l3.424 1.902a.6.6 0 0 0 .583 0l3.424-1.902a14.95 14.95 0 0 0 7.684-13.059v-5.962a.6.6 0 0 0-.6-.6zm-.6 6.562a13.75 13.75 0 0 1-7.067 12.01l-3.133 1.74-3.133-1.74A13.75 13.75 0 0 1 7.2 26.958v-5.362h.06c1.962.002 3.905-.385 5.717-1.137a14.86 14.86 0 0 0 4.423-2.83 14.94 14.94 0 0 0 10.14 3.967h.06v5.362z" fill-rule="evenodd"/></svg>
